X:1
T:Bourgeois Blues
M:4/4
Q:1/4=120
K:G
d2ddddd2|-dGdddd3|-dddddddd|-d2ddddd^A|-^A6^AB|
GG3G4|-G6^AB|GG3G4|-G6c^c|dd2d3c^c|dddd2cBG|
-G15/2||
